X:504
T:
R:vals
S:Ur von Baumgartens samling, Visby.
O:Gotland, Visby
M:3/4
L:1/8
K:C
G2|G2 cG e2|c4 e2|c2 cBce|G4 e2|G2 eG e2|c4 g2|d2 dcde|c4::
g2|g4 c'2|g4 e2|d4 g2|fede c2|G2 cG e2|c4 g2|d2 dcde|c4::
ce|g4 g2|ag^fg=fd|c2 e2 e2|d2 f2 f2|g4 g2|ag^fg=fd|c2 e2 d2|c4::
K:G
Bc|d2 dddd|d2 g2 b2|d2 g2 a2|gfga g2|d2 dddd|d2 g2 b2|d2 f2 a2|g4:|

